X:183 
T:Rosemary Lane  
B:CRE3.009 (LÃÂÃÂÃÂÃÂ¡na Rosemary)
F:file ID: cre.3/183rose_L
R:jig
Q:160
M:6/8
L:1/8
K:D
AG|FEF DFA|dce dcB|AdB AFD|E2D EAG|
~F3 DFA|dce dcB|Ade faf|1 gec d:|2 gec d2||
f|:aba fed|gfg ece|fed Bcd|edB ABc|
~d3 AFA|Bed cBA|faf gec|edc d3:|

%%%

